X: 51
T:Blarney Pilgrim
M:6/8
L:1/8
R:Jig
K:G
"G"DED DEG|"D"A2G ABc|"G"B>AG AGE|"C"GEA GED|!
"G"DED DEG|"D"A2G ABc|"G"B>AG "D"AGE|"C"GED"D"D2D:|!
"G"ded dBG|"D"AGA "Em"BGE|"G"ded dBG|"D"ABA "G"GBd|!
"C"g2e "G"d>BG|"D"AGA "Em"BGE|"G"BGB "D"AGE|"C"GED"D"D2D:|!
"D"A2D"G"B2D|"D"A2D ABc|"G"B>AG "D"AGE|"C"GEA GED|!
"D"A2D"G"B2D|"D"A2D ABc|"G"B>AG "D"AGE|"C"GED"D"D2D:|

